svgs/sharp-regular/sigma.svg

<svg xmlns="http://www.w3.org/2000/svg" viewBox="0 0 384 512"><!--! Font Awesome Pro 6.6.0 by @fontawesome - https://fontawesome.com License - https://fontawesome.com/license (Commercial License) Copyright 2024 Fonticons, Inc. --><path d="M0 480l24 0 336 0 24 0 0-24 0-80 0-24-48 0 0 24 0 56L81.9 432 241 273l17-17-17-17L81.9 80 336 80l0 56 0 24 48 0 0-24 0-80 0-24-24 0L24 32 0 32 0 65.9l7 7 183 183L7 439l-7 7L0 480z"/></svg>

<svg xmlns="http://www.w3.org/2000/svg" viewBox="0 0 384 512"><!--! Font Awesome Pro 6.5.2 by @fontawesome - https://fontawesome.com License - https://fontawesome.com/license (Commercial License) Copyright 2024 Fonticons, Inc. --><path d="M0 480H24 360h24V456 376 352H336v24 56H81.9L241 273l17-17-17-17L81.9 80H336v56 24h48V136 56 32H360 24 0V65.9l7 7 183 183L7 439l-7 7V480z"/></svg>
